Hydrogen/scalable/apps/office-address-book.svg

<?xml version="1.0" encoding="UTF-8" standalone="no"?>
<svg
   id="svg109"
   width="128"
   height="128"
   fill="none"
   version="1.1"
   viewBox="0 0 128 128"
   sodipodi:docname="office-address-book.svg"
   inkscape:version="1.3.2 (091e20ef0f, 2023-11-25)"
   xmlns:inkscape="http://www.inkscape.org/namespaces/inkscape"
   xmlns:sodipodi="http://sodipodi.sourceforge.net/DTD/sodipodi-0.dtd"
   xmlns="http://www.w3.org/2000/svg"
   xmlns:svg="http://www.w3.org/2000/svg">
  <sodipodi:namedview
     id="namedview1"
     pagecolor="#ffffff"
     bordercolor="#111111"
     borderopacity="1"
     inkscape:showpageshadow="0"
     inkscape:pageopacity="0"
     inkscape:pagecheckerboard="1"
     inkscape:deskcolor="#d1d1d1"
     inkscape:zoom="6.375"
     inkscape:cx="64"
     inkscape:cy="64"
     inkscape:window-width="2560"
     inkscape:window-height="979"
     inkscape:window-x="0"
     inkscape:window-y="0"
     inkscape:window-maximized="1"
     inkscape:current-layer="svg109" />
  <rect
     id="rect28"
     width="72"
     height="72"
     x="28.5"
     y="28.5"
     stroke="#2D2D2D"
     stroke-opacity=".1"
     rx="36" />
  <rect
     id="rect30"
     width="36"
     height="36"
     x="46.5"
     y="46.5"
     stroke="#2D2D2D"
     stroke-opacity=".1"
     rx="18" />
  <g
     id="g36"
     filter="url(#filter1_i_318_24)"
     style="fill:#3584e4;stroke-width:0.8125">
    <rect
       id="rect32"
       width="104"
       height="104"
       x="12"
       y="12"
       fill="#56BFA6"
       rx="19.5"
       style="fill:#3584e4;stroke-width:0.8125"
       ry="19.5" />
    <rect
       id="rect34"
       width="104"
       height="104"
       x="12"
       y="12"
       fill="url(#paint1_linear_318_24)"
       rx="19.5"
       style="fill:#3584e4;stroke-width:0.8125"
       ry="19.5" />
  </g>
  <g
     id="g52"
     clip-path="url(#clip1_318_24)"
     transform="matrix(1.1426593,0,0,1.1428571,-9.1301899,-5.7142831)">
    <path
       id="path48"
       fill="#f0f0f2"
       d="m 64,73 c -18.2564,0 -27.625,12.8281 -27.625,12.8281 -0.1544,0.2133 -0.2651,0.4549 -0.3259,0.711 -0.0607,0.2561 -0.0703,0.5217 -0.0282,0.7815 0.0421,0.2599 0.135,0.5089 0.2736,0.7327 0.1385,0.2238 0.3198,0.4181 0.5336,0.5717 0.2132,0.1543 0.4548,0.2651 0.711,0.3258 0.2561,0.0608 0.5217,0.0704 0.7815,0.0283 0.2599,-0.0421 0.5088,-0.1351 0.7327,-0.2736 0.2238,-0.1385 0.4181,-0.3199 0.5717,-0.5336 0,0 7.9647,-11.1719 24.375,-11.1719 16.4102,0 24.375,11.1719 24.375,11.1719 0.1536,0.2137 0.3479,0.3951 0.5717,0.5336 0.2238,0.1385 0.4728,0.2315 0.7326,0.2736 0.2599,0.0421 0.5255,0.0325 0.7816,-0.0283 0.2561,-0.0607 0.4977,-0.1715 0.711,-0.3258 0.2137,-0.1536 0.3951,-0.3479 0.5336,-0.5717 0.1385,-0.2238 0.2315,-0.4728 0.2736,-0.7327 0.0421,-0.2598 0.0325,-0.5254 -0.0283,-0.7815 C 91.89,86.283 91.7793,86.0414 91.625,85.8281 91.625,85.8281 82.2564,73 64,73 Z" />
    <path
       id="path50"
       fill="#f0f0f2"
       d="m 64,33 c -8.8129,0 -16,7.1871 -16,16 0,8.8129 7.1871,16 16,16 8.8129,0 16,-7.1871 16,-16 0,-8.8129 -7.1871,-16 -16,-16 z m 0,4 c 6.6511,0 12,5.3489 12,12 0,6.6511 -5.3489,12 -12,12 -6.6511,0 -12,-5.3489 -12,-12 0,-6.6511 5.3489,-12 12,-12 z" />
  </g>
  <defs
     id="defs107">
    <filter
       id="filter0_i_318_24"
       width="104"
       height="104"
       x="12"
       y="12"
       color-interpolation-filters="sRGB"
       filterUnits="userSpaceOnUse">
      <feFlood
         id="feFlood54"
         flood-opacity="0"
         result="BackgroundImageFix" />
      <feBlend
         id="feBlend56"
         in="SourceGraphic"
         in2="BackgroundImageFix"
         mode="normal"
         result="shape" />
      <feColorMatrix
         id="feColorMatrix58"
         in="SourceAlpha"
         result="hardAlpha"
         type="matrix"
         values="0 0 0 0 0 0 0 0 0 0 0 0 0 0 0 0 0 0 127 0" />
      <feOffset
         id="feOffset60"
         dy="-4" />
      <feComposite
         id="feComposite62"
         in2="hardAlpha"
         k2="-1"
         k3="1"
         operator="arithmetic" />
      <feColorMatrix
         id="feColorMatrix64"
         type="matrix"
         values="0 0 0 0 0 0 0 0 0 0 0 0 0 0 0 0 0 0 0.2 0" />
      <feBlend
         id="feBlend66"
         in2="shape"
         mode="normal"
         result="effect1_innerShadow_318_24" />
    </filter>
    <filter
       id="filter1_i_318_24"
       width="104"
       height="104"
       x="12"
       y="12"
       color-interpolation-filters="sRGB"
       filterUnits="userSpaceOnUse">
      <feFlood
         id="feFlood69"
         flood-opacity="0"
         result="BackgroundImageFix" />
      <feBlend
         id="feBlend71"
         in="SourceGraphic"
         in2="BackgroundImageFix"
         mode="normal"
         result="shape" />
      <feColorMatrix
         id="feColorMatrix73"
         in="SourceAlpha"
         result="hardAlpha"
         type="matrix"
         values="0 0 0 0 0 0 0 0 0 0 0 0 0 0 0 0 0 0 127 0" />
      <feOffset
         id="feOffset75"
         dy="-4" />
      <feComposite
         id="feComposite77"
         in2="hardAlpha"
         k2="-1"
         k3="1"
         operator="arithmetic" />
      <feColorMatrix
         id="feColorMatrix79"
         type="matrix"
         values="0 0 0 0 0.176471 0 0 0 0 0.176471 0 0 0 0 0.176471 0 0 0 0.1 0" />
      <feBlend
         id="feBlend81"
         in2="shape"
         mode="normal"
         result="effect1_innerShadow_318_24" />
    </filter>
    <filter
       id="filter2_f_318_24"
       width="80"
       height="80"
       x="24"
       y="21"
       color-interpolation-filters="sRGB"
       filterUnits="userSpaceOnUse">
      <feFlood
         id="feFlood84"
         flood-opacity="0"
         result="BackgroundImageFix" />
      <feBlend
         id="feBlend86"
         in="SourceGraphic"
         in2="BackgroundImageFix"
         mode="normal"
         result="shape" />
      <feGaussianBlur
         id="feGaussianBlur88"
         result="effect1_foregroundBlur_318_24"
         stdDeviation="4" />
    </filter>
    <linearGradient
       id="paint0_linear_318_24"
       x1="64"
       x2="64"
       y1="12"
       y2="116"
       gradientUnits="userSpaceOnUse">
      <stop
         id="stop91"
         stop-color="#2D2D2D"
         stop-opacity="0" />
      <stop
         id="stop93"
         offset="1"
         stop-color="#2D2D2D"
         stop-opacity=".2" />
    </linearGradient>
    <linearGradient
       id="paint1_linear_318_24"
       x1="64"
       x2="64"
       y1="12"
       y2="116"
       gradientUnits="userSpaceOnUse">
      <stop
         id="stop96"
         stop-color="#2D2D2D"
         stop-opacity="0" />
      <stop
         id="stop98"
         offset="1"
         stop-color="#2D2D2D"
         stop-opacity=".2" />
    </linearGradient>
    <clipPath
       id="clip0_318_24">
      <rect
         id="rect101"
         width="64"
         height="64"
         fill="#fff"
         transform="translate(32 29)" />
    </clipPath>
    <clipPath
       id="clip1_318_24">
      <rect
         id="rect104"
         width="64"
         height="64"
         fill="#fff"
         transform="translate(32 25)" />
    </clipPath>
  </defs>
</svg>

<svg xmlns="http://www.w3.org/2000/svg" xmlns:svg="http://www.w3.org/2000/svg" id="svg109" width="128" height="128" fill="none" version="1.1" viewBox="0 0 128 128"><rect id="rect28" width="72" height="72" x="28.5" y="28.5" stroke="#2D2D2D" stroke-opacity=".1" rx="36"/><rect id="rect30" width="36" height="36" x="46.5" y="46.5" stroke="#2D2D2D" stroke-opacity=".1" rx="18"/><g id="g36" filter="url(#filter1_i_318_24)" style="fill:#3584e4;stroke-width:.8125" transform="matrix(1.2307692,0,0,1.2307692,-14.769231,-14.769231)"><rect id="rect32" width="104" height="104" x="12" y="12" fill="#56BFA6" rx="19.5" style="fill:#3584e4;stroke-width:.8125" ry="19.5"/><rect id="rect34" width="104" height="104" x="12" y="12" fill="url(#paint1_linear_318_24)" rx="19.5" style="fill:#3584e4;stroke-width:.8125" ry="19.5"/></g><g id="g52" clip-path="url(#clip1_318_24)"><path id="path48" fill="#F0F0F2" d="M64 73C45.7436 73 36.375 85.8281 36.375 85.8281C36.2206 86.0414 36.1099 86.283 36.0491 86.5391C35.9884 86.7952 35.9788 87.0608 36.0209 87.3206C36.063 87.5805 36.1559 87.8295 36.2945 88.0533C36.433 88.2771 36.6143 88.4714 36.8281 88.625C37.0413 88.7793 37.2829 88.8901 37.5391 88.9508C37.7952 89.0116 38.0608 89.0212 38.3206 88.9791C38.5805 88.937 38.8294 88.844 39.0533 88.7055C39.2771 88.567 39.4714 88.3856 39.625 88.1719C39.625 88.1719 47.5897 77 64 77C80.4102 77 88.375 88.1719 88.375 88.1719C88.5286 88.3856 88.7229 88.567 88.9467 88.7055C89.1705 88.844 89.4195 88.937 89.6793 88.9791C89.9392 89.0212 90.2048 89.0116 90.4609 88.9508C90.717 88.8901 90.9586 88.7793 91.1719 88.625C91.3856 88.4714 91.567 88.2771 91.7055 88.0533C91.844 87.8295 91.937 87.5805 91.9791 87.3206C92.0212 87.0608 92.0116 86.7952 91.9508 86.5391C91.89 86.283 91.7793 86.0414 91.625 85.8281C91.625 85.8281 82.2564 73 64 73Z"/><path id="path50" fill="#F0F0F2" d="M64 33C55.1871 33 48 40.1871 48 49C48 57.8129 55.1871 65 64 65C72.8129 65 80 57.8129 80 49C80 40.1871 72.8129 33 64 33ZM64 37C70.6511 37 76 42.3489 76 49C76 55.6511 70.6511 61 64 61C57.3489 61 52 55.6511 52 49C52 42.3489 57.3489 37 64 37Z"/></g><defs id="defs107"><filter id="filter0_i_318_24" width="104" height="104" x="12" y="12" color-interpolation-filters="sRGB" filterUnits="userSpaceOnUse"><feFlood id="feFlood54" flood-opacity="0" result="BackgroundImageFix"/><feBlend id="feBlend56" in="SourceGraphic" in2="BackgroundImageFix" mode="normal" result="shape"/><feColorMatrix id="feColorMatrix58" in="SourceAlpha" result="hardAlpha" type="matrix" values="0 0 0 0 0 0 0 0 0 0 0 0 0 0 0 0 0 0 127 0"/><feOffset id="feOffset60" dy="-4"/><feComposite id="feComposite62" in2="hardAlpha" k2="-1" k3="1" operator="arithmetic"/><feColorMatrix id="feColorMatrix64" type="matrix" values="0 0 0 0 0 0 0 0 0 0 0 0 0 0 0 0 0 0 0.2 0"/><feBlend id="feBlend66" in2="shape" mode="normal" result="effect1_innerShadow_318_24"/></filter><filter id="filter1_i_318_24" width="104" height="104" x="12" y="12" color-interpolation-filters="sRGB" filterUnits="userSpaceOnUse"><feFlood id="feFlood69" flood-opacity="0" result="BackgroundImageFix"/><feBlend id="feBlend71" in="SourceGraphic" in2="BackgroundImageFix" mode="normal" result="shape"/><feColorMatrix id="feColorMatrix73" in="SourceAlpha" result="hardAlpha" type="matrix" values="0 0 0 0 0 0 0 0 0 0 0 0 0 0 0 0 0 0 127 0"/><feOffset id="feOffset75" dy="-4"/><feComposite id="feComposite77" in2="hardAlpha" k2="-1" k3="1" operator="arithmetic"/><feColorMatrix id="feColorMatrix79" type="matrix" values="0 0 0 0 0.176471 0 0 0 0 0.176471 0 0 0 0 0.176471 0 0 0 0.1 0"/><feBlend id="feBlend81" in2="shape" mode="normal" result="effect1_innerShadow_318_24"/></filter><filter id="filter2_f_318_24" width="80" height="80" x="24" y="21" color-interpolation-filters="sRGB" filterUnits="userSpaceOnUse"><feFlood id="feFlood84" flood-opacity="0" result="BackgroundImageFix"/><feBlend id="feBlend86" in="SourceGraphic" in2="BackgroundImageFix" mode="normal" result="shape"/><feGaussianBlur id="feGaussianBlur88" result="effect1_foregroundBlur_318_24" stdDeviation="4"/></filter><linearGradient id="paint0_linear_318_24" x1="64" x2="64" y1="12" y2="116" gradientUnits="userSpaceOnUse"><stop id="stop91" stop-color="#2D2D2D" stop-opacity="0"/><stop id="stop93" offset="1" stop-color="#2D2D2D" stop-opacity=".2"/></linearGradient><linearGradient id="paint1_linear_318_24" x1="64" x2="64" y1="12" y2="116" gradientUnits="userSpaceOnUse"><stop id="stop96" stop-color="#2D2D2D" stop-opacity="0"/><stop id="stop98" offset="1" stop-color="#2D2D2D" stop-opacity=".2"/></linearGradient><clipPath id="clip0_318_24"><rect id="rect101" width="64" height="64" fill="#fff" transform="translate(32 29)"/></clipPath><clipPath id="clip1_318_24"><rect id="rect104" width="64" height="64" fill="#fff" transform="translate(32 25)"/></clipPath></defs></svg>
